X:1
T:Standin In The Need of Prayer
T:Nobody knows the trouble I see, Lord
T:Copyright 1881 by The Riverside Press
T:Rodeheaver's Plantation Melodies
Z:Rodeheaver's Plantation Melodies
L:1/8
Q:1/4=70
M:2/4
K:Eb
V:1 treble nm="Soprano" snm="S."
V:1
 C/EF/ G>G | B/G/c B<G | C/EF/ G>E | F/GE/ C2 | C/EF/ G>G | B/G/c B<G | C/EF/ GD | C2 C2!fine! || %8
w: No- bo- dy knows the|trou- ble I see Lord.|No- bo- dy knows the|trou- ble I see.|No- bo- dy knows the|trou- ble I see Lord.|No- bo- dy knows like|Je- sus.|
 cc ee | c>B G2 | BB dd | c>B G2 | cc ee | %13
w: Bro- thers will you|pray for me.|Bro- thers will you|pray for me.|Bro- thers will you|
"_2. Sisters, will you pray for me, etc.\n3. Mothers, will you pray for me, etc.\n4. Preachers, will you pray for me" c>B GE | %14
w: pray for me, And|
 GG/>F/ EE | F/EE/ C2!D.C.! |] %16
w: help me to drive old|Sa- tan a- way.|

